build/finance/MulticurencyOutline.svg

<svg xmlns="http://www.w3.org/2000/svg" fill="none" viewBox="0 0 24 24" focusable="false"><path d="M0 0H24V24H0z"/><path fill="#74767B" fill-rule="evenodd" d="M4.3 10C4.3 6.85198 6.85198 4.3 10 4.3C11.198 4.3 12.3097 4.66958 13.2272 5.30094C13.5363 5.51364 13.9717 5.51173 14.2345 5.24392C14.4941 4.97934 14.4368 4.57276 14.1379 4.35339C12.9788 3.50254 11.5481 3 10 3C6.13401 3 3 6.13401 3 10C3 11.5358 3.49462 12.9562 4.33325 14.1103C4.57729 14.4462 5.03459 14.5409 5.32722 14.2464C5.5785 13.9935 5.54181 13.5698 5.33653 13.2783C4.68349 12.3511 4.3 11.2203 4.3 10ZM7 14C7 10.134 10.134 7 14 7C17.866 7 21 10.134 21 14C21 17.866 17.866 21 14 21C10.134 21 7 17.866 7 14ZM8.3 14C8.3 10.852 10.852 8.3 14 8.3C17.148 8.3 19.7 10.852 19.7 14C19.7 17.148 17.148 19.7 14 19.7C10.852 19.7 8.3 17.148 8.3 14ZM11.35 14.003C11.35 13.644 11.641 13.353 12 13.353L16 13.353C16.359 13.353 16.65 13.644 16.65 14.003C16.65 14.362 16.359 14.653 16 14.653L12 14.653C11.641 14.653 11.35 14.362 11.35 14.003Z"/></svg>

<svg xmlns="http://www.w3.org/2000/svg" fill="none" viewBox="0 0 24 24" focusable="false"><path fill="#74767B" fill-rule="evenodd" d="M10 4.29c-3.15 0-5.7 2.56-5.7 5.71 0 1.22.38 2.35 1.03 3.27.21.29.24.72-.01.97-.29.3-.75.2-.99-.13A7 7 0 0 1 3 10c0-3.87 3.13-7 7-7 1.54 0 2.97.5 4.13 1.35.3.22.36.62.1.89s-.7.27-1.01.06A5.6 5.6 0 0 0 10 4.29M7 14c0-3.87 3.13-7 7-7 3.86 0 7 3.13 7 7 0 3.86-3.14 7-7 7-3.87 0-7-3.14-7-7m1.3 0c0-3.15 2.55-5.71 5.7-5.71 3.14 0 5.7 2.56 5.7 5.71 0 3.14-2.56 5.7-5.7 5.7-3.15 0-5.7-2.56-5.7-5.7m3.05 0c0-.36.29-.65.65-.65h4c.35 0 .65.29.65.65s-.3.65-.65.65h-4c-.36 0-.65-.29-.65-.65"/></svg>
